demoApp/www/icon/meetings.svg

<svg id="Layer_1" xmlns="http://www.w3.org/2000/svg" viewBox="0 0 45 35" width="45" height="35"><style>.st1{fill:#6f6d6d}</style><font horiz-adv-x="2048"><font-face font-family="ArialMT" units-per-em="2048" underline-position="-217" underline-thickness="150"/><glyph unicode="M" horiz-adv-x="1706" d="M152 0v1466h292L791 428c32-97 55-169 70-217 17 53 43 132 78 235l351 1020h261V0h-187v1227L938 0H763L339 1248V0z"/><glyph unicode="e" horiz-adv-x="1139" d="M862 342l186-23c-29-109-84-193-163-253S704-24 581-24c-155 0-278 48-369 144-91 95-137 229-137 402 0 179 46 317 138 416s211 148 358 148c142 0 258-48 348-145s135-233 135-408c0-11 0-27-1-48H261c7-117 40-206 99-268s133-93 222-93c66 0 122 17 169 52s84 90 111 166M271 633h593c-8 89-31 156-68 201-57 69-132 104-223 104-83 0-152-28-208-83-57-55-88-129-94-222z"/><glyph unicode="g" horiz-adv-x="1139" d="M102-88l175-26c7-54 28-93 61-118 45-33 106-50 183-50 83 0 148 17 193 50s76 80 92 140c9 37 14 114 13 231C740 46 642 0 525 0 379 0 266 53 186 158S66 390 66 537c0 101 18 195 55 281 37 85 90 151 160 198 69 47 151 70 245 70 125 0 229-51 310-152v128h166V144c0-165-17-282-50-351-34-69-87-124-160-164s-163-60-270-60c-127 0-229 29-307 86S99-203 102-88m149 638c0-139 28-241 83-305s125-96 208-96 152 32 208 96c56 63 84 163 84 299 0 130-29 228-86 294-58 66-128 99-209 99-80 0-148-32-204-97s-84-162-84-290z"/><glyph unicode="i" horiz-adv-x="455" d="M136 1259v207h180v-207M136 0v1062h180V0z"/><glyph unicode="n" horiz-adv-x="1139" d="M135 0v1062h162V911c78 117 191 175 338 175 64 0 123-11 177-34 53-23 93-54 120-91s45-82 56-133c7-33 10-92 10-175V0H818v646c0 73-7 128-21 165-14 36-39 65-74 87-36 21-78 32-126 32-77 0-143-24-198-73-56-49-84-141-84-277V0z"/><glyph unicode="s" horiz-adv-x="1024" d="M63 317l178 28c10-71 38-126 84-164 45-38 109-57 191-57 83 0 144 17 184 51 40 33 60 73 60 118 0 41-18 73-53 96-25 16-86 36-184 61-132 33-223 62-274 87-51 24-90 58-116 101-27 43-40 90-40 142 0 47 11 91 33 132 21 40 51 73 88 100 28 21 66 38 115 53 48 14 100 21 155 21 83 0 157-12 220-36s109-56 139-97 51-96 62-165l-176-24c-8 55-31 97-69 128-39 31-93 46-163 46-83 0-142-14-177-41s-53-59-53-96c0-23 7-44 22-63s38-35 69-48c18-7 71-22 159-46 127-34 216-62 267-83 50-22 89-54 118-95s43-93 43-154c0-60-17-116-52-169S807 49 741 20 600-24 517-24C379-24 274 5 202 62 129 119 83 204 63 317z"/><glyph unicode="t" horiz-adv-x="569" d="M528 161L554 2c-51-11-96-16-136-16-65 0-116 10-152 31s-61 48-76 82c-15 33-22 104-22 212v611H36v140h132v263l179 108v-371h181V922H347V301c0-51 3-84 10-99 6-15 16-26 31-35 14-9 34-13 61-13 20 0 46 2 79 7z"/></font><font horiz-adv-x="2048"><font-face font-family="TeamsAssets-Regular" units-per-em="2048" underline-position="-119" underline-thickness="119"/><glyph unicode="" horiz-adv-x="2048" d="M1919 1600V395c0-42-13-80-39-113-27-33-60-55-101-65-239-59-491-89-756-89s-517 30-756 89c-41 10-74 32-100 65-27 33-40 71-40 113v1205c0 35 9 67 26 96s41 53 70 70 61 26 96 26h320v128c0 17 6 32 19 45s28 19 45 19 32-6 45-19 19-28 19-45v-128h512v128c0 17 6 32 19 45s28 19 45 19 32-6 45-19 19-28 19-45v-128h320c35 0 67-9 96-26s53-41 70-70 26-61 26-96M511 1024h256v256H511m384-256h256v256H895m0-640h256v256H895M511 640h256v256H511m768 128h256v256h-256z"/></font><g id="Priority-Msg-_x2F_-Img-Annotation"><g id="_x31_-0-Chat" transform="translate(-240 -626)"><g id="Navigation_x2F_Tab-Grey" transform="translate(225 618)"><path id="Container" fill="none" d="M0 0h75v50H0z"/><text transform="translate(14.84 41)" class="st1" font-size="10" font-family="ArialMT">Meetings</text><text transform="translate(26.5 30)" class="st1" font-size="22" font-family="TeamsAssets-Regular"></text></g></g></g></svg>

<?xml version="1.0" encoding="utf-8"?>
<!-- Generator: Adobe Illustrator 21.0.0, SVG Export Plug-In . SVG Version: 6.00 Build 0)  -->
<svg version="1.1" id="Layer_1" xmlns="http://www.w3.org/2000/svg" xmlns:xlink="http://www.w3.org/1999/xlink" x="0px" y="0px"
	 viewBox="0 0 45 35" style="enable-background:new 0 0 45 35;" xml:space="preserve">
<style type="text/css">
	.st0{fill:none;}
	.st1{fill:#6F6D6D;}
	.st2{font-family:'ArialMT';}
	.st3{font-size:10px;}
	.st4{font-family:'TeamsAssets-Regular';}
	.st5{font-size:22px;}
</style>
<font horiz-adv-x="2048">
<!-- Arial is a trademark of The Monotype Corporation in the United States and/or other countries. -->
<!-- Copyright: Copyright 2018 Adobe System Incorporated. All rights reserved. -->
<font-face font-family="ArialMT" units-per-em="2048" underline-position="-217" underline-thickness="150"/>
<missing-glyph horiz-adv-x="1536" d="M256,0l0,1280l1024,0l0,-1280M288,32l960,0l0,1216l-960,0z"/>
<glyph unicode="M" horiz-adv-x="1706" d="M152,0l0,1466l292,0l347,-1038C823,331 846,259 861,211C878,264 904,343 939,446l351,1020l261,0l0,-1466l-187,0l0,1227l-426,-1227l-175,0l-424,1248l0,-1248z"/>
<glyph unicode="e" horiz-adv-x="1139" d="M862,342l186,-23C1019,210 964,126 885,66C806,6 704,-24 581,-24C426,-24 303,24 212,120C121,215 75,349 75,522C75,701 121,839 213,938C305,1037 424,1086 571,1086C713,1086 829,1038 919,941C1009,844 1054,708 1054,533C1054,522 1054,506 1053,485l-792,0C268,368 301,279 360,217C419,155 493,124 582,124C648,124 704,141 751,176C798,211 835,266 862,342M271,633l593,0C856,722 833,789 796,834C739,903 664,938 573,938C490,938 421,910 365,855C308,800 277,726 271,633z"/>
<glyph unicode="g" horiz-adv-x="1139" d="M102,-88l175,-26C284,-168 305,-207 338,-232C383,-265 444,-282 521,-282C604,-282 669,-265 714,-232C759,-199 790,-152 806,-92C815,-55 820,22 819,139C740,46 642,0 525,0C379,0 266,53 186,158C106,263 66,390 66,537C66,638 84,732 121,818C158,903 211,969 281,1016C350,1063 432,1086 526,1086C651,1086 755,1035 836,934l0,128l166,0l0,-918C1002,-21 985,-138 952,-207C918,-276 865,-331 792,-371C719,-411 629,-431 522,-431C395,-431 293,-402 215,-345C137,-288 99,-203 102,-88M251,550C251,411 279,309 334,245C389,181 459,149 542,149C625,149 694,181 750,245C806,308 834,408 834,544C834,674 805,772 748,838C690,904 620,937 539,937C459,937 391,905 335,840C279,775 251,678 251,550z"/>
<glyph unicode="i" horiz-adv-x="455" d="M136,1259l0,207l180,0l0,-207M136,0l0,1062l180,0l0,-1062z"/>
<glyph unicode="n" horiz-adv-x="1139" d="M135,0l0,1062l162,0l0,-151C375,1028 488,1086 635,1086C699,1086 758,1075 812,1052C865,1029 905,998 932,961C959,924 977,879 988,828C995,795 998,736 998,653l0,-653l-180,0l0,646C818,719 811,774 797,811C783,847 758,876 723,898C687,919 645,930 597,930C520,930 454,906 399,857C343,808 315,716 315,580l0,-580z"/>
<glyph unicode="s" horiz-adv-x="1024" d="M63,317l178,28C251,274 279,219 325,181C370,143 434,124 516,124C599,124 660,141 700,175C740,208 760,248 760,293C760,334 742,366 707,389C682,405 621,425 523,450C391,483 300,512 249,537C198,561 159,595 133,638C106,681 93,728 93,780C93,827 104,871 126,912C147,952 177,985 214,1012C242,1033 280,1050 329,1065C377,1079 429,1086 484,1086C567,1086 641,1074 704,1050C767,1026 813,994 843,953C873,912 894,857 905,788l-176,-24C721,819 698,861 660,892C621,923 567,938 497,938C414,938 355,924 320,897C285,870 267,838 267,801C267,778 274,757 289,738C304,719 327,703 358,690C376,683 429,668 517,644C644,610 733,582 784,561C834,539 873,507 902,466C931,425 945,373 945,312C945,252 928,196 893,143C858,90 807,49 741,20C675,-9 600,-24 517,-24C379,-24 274,5 202,62C129,119 83,204 63,317z"/>
<glyph unicode="t" horiz-adv-x="569" d="M528,161l26,-159C503,-9 458,-14 418,-14C353,-14 302,-4 266,17C230,38 205,65 190,99C175,132 168,203 168,311l0,611l-132,0l0,140l132,0l0,263l179,108l0,-371l181,0l0,-140l-181,0l0,-621C347,250 350,217 357,202C363,187 373,176 388,167C402,158 422,154 449,154C469,154 495,156 528,161z"/>
</font>

	<font horiz-adv-x="2048">
<!-- Copyright (c) 2017 by Microsoft. All rights reserved. -->
<!-- Copyright: Copyright 2018 Adobe System Incorporated. All rights reserved. -->
<font-face font-family="TeamsAssets-Regular" units-per-em="2048" underline-position="-119" underline-thickness="119"/>
<missing-glyph horiz-adv-x="600"/>
<glyph unicode="&#xE503;" horiz-adv-x="2048" d="M1919,1600l0,-1205C1919,353 1906,315 1880,282C1853,249 1820,227 1779,217C1540,158 1288,128 1023,128C758,128 506,158 267,217C226,227 193,249 167,282C140,315 127,353 127,395l0,1205C127,1635 136,1667 153,1696C170,1725 194,1749 223,1766C252,1783 284,1792 319,1792l320,0l0,128C639,1937 645,1952 658,1965C671,1978 686,1984 703,1984C720,1984 735,1978 748,1965C761,1952 767,1937 767,1920l0,-128l512,0l0,128C1279,1937 1285,1952 1298,1965C1311,1978 1326,1984 1343,1984C1360,1984 1375,1978 1388,1965C1401,1952 1407,1937 1407,1920l0,-128l320,0C1762,1792 1794,1783 1823,1766C1852,1749 1876,1725 1893,1696C1910,1667 1919,1635 1919,1600M511,1024l256,0l0,256l-256,0M895,1024l256,0l0,256l-256,0M895,640l256,0l0,256l-256,0M511,640l256,0l0,256l-256,0M1279,1024l256,0l0,256l-256,0z"/>
</font>

	<desc>Created with Sketch.</desc>
<g id="Priority-Msg-_x2F_-Img-Annotation">
	<g id="_x31_-0-Chat" transform="translate(-240.000000, -626.000000)">
		<g id="Navigation_x2F_Tab-Grey" transform="translate(225.000000, 618.000000)">
			<rect id="Container" class="st0" width="75" height="50"/>
			<text transform="matrix(1 0 0 1 14.8398 41)" class="st1 st2 st3">Meetings</text>
			<text transform="matrix(1 0 0 1 26.5 30)" class="st1 st4 st5"></text>
		</g>
	</g>
</g>
</svg>
